X:1
T:Search the Scriptures
T:Search the Scriptures
T:Edmund Simon Lorenz
T:Priscilla Jane Owens, 1883
T:Public Domain Courtesy of the Cyber Hymnal™
T:Public Domain Courtesy of the Cyber Hymnal™
C:Edmund Simon Lorenz
Z:Public Domain
Z:Courtesy of the Cyber Hymnal™
%%score ( 1 2 ) ( 3 4 )
L:1/8
Q:1/4=94
M:4/4
K:A
V:1 treble 
V:2 treble 
V:3 bass 
V:4 bass 
V:1
 [CA][DB] | [Ec]>[Ec] [Ec][Ec] [Ec]2 [Fd][Ec] | [EB]>[EB] [EB][EB] [EB]2 [Ec][DB] | %3
w: 1.~Would you|pre- cious trea- sure gain? Would you|end- less life ob- tain? Search the|
w: 2.~Would you|lead young souls to- day In the|safe and nar- row way? Take the|
w: 3.~Till the|day- star from a- bove Fill your|heart with light and love May the|
 [CA][CG][FA][DF] [CE][CA][Ec][Ee] | [EB]6 [EA][EB] | [Ec]>[Ec] [Ec][Ec] [Ec]2 [Fd][Ec] | %6
w: Scrip- tures, for the truth is writ- ten|there; Let thy|heart take ear- nest heed, Let your|
w: sac- red mes- sage gi- ven from on|high; For the|word of truth and grace Is a|
w: mu- sic of the Gos- pel on- ward|roll; Till the|sha- dows are with- drawn, And the|
 [DB]>[DF] [DF][DF] [DF]2 [FA][DF] | [CE][EA][Ac][Ae] [Ge][Gd][GB][EG] | [EA]6 || %9
w: faith each pro- mise plead, God will|teach the souls that read His word with|care.|
w: light in ev- ery place, That will|teach us how to live and how to|die.|
w: light from Hea- ven dawn, And the|splen- dor flood the earth from pole to|pole.|
"^Refrain" [Ac][Bd] | [ce]4- [ce]A[Fd][Ec] | [EB]4- [EB]E[EG][GB] | [Bd]4- [Bd][GB][Ge][Bd] | %13
w: Ho- ly|Bi- * ble, God hath|spo- * ken, Let His|Word * di- rect my|
w: ||||
w: ||||
 [Ac]6 [Ac][Bd] | [ce]4- [ce]A[Fd][Ec] | [DB]4- [DB][DF][FA][DF] | %16
w: way; Ho- ly|Bi- * ble, won- drous|to- * ken, I be-|
w: |||
w: |||
 [CE][EA][Ac][Ae] [Ge][Gd][GB][EG] | [EA]6 |] %18
w: lieve thee, I re- ceive thee and o-|bey.|
w: ||
w: ||
V:2
 x2 | x8 | x8 | x8 | x8 | x8 | x8 | x8 | x6 || x2 | x5 A x2 | x5 E x2 | x8 | x8 | x5 A x2 | x8 | %16
 x8 | x6 |] %18
V:3
 A,A, | A,>A, A,A, A,2 A,A, | [E,G,]>[E,G,] [E,G,][E,G,] [E,G,]2 [E,G,][E,G,] | %3
w: ~ ~|~ ~ ~ ~ ~ ~ ~|~ ~ ~ ~ ~ ~ ~|
 [F,A,][F,A,][D,A,][D,A,] [A,,A,][A,,A,][A,,A,][C,A,] | G,6 [C,A,][B,,G,] | %5
w: ~ ~ ~ ~ ~ ~ ~ ~|~ ~ ~|
 [A,,A,]>[A,,A,] [A,,A,][A,,A,] [A,,A,]2 [A,,A,][A,,A,] | %6
w: ~ ~ ~ ~ ~ ~ ~|
 [D,F,]>[D,A,] [D,A,][D,A,] [D,A,]2 [D,A,][D,A,] | [E,A,][E,C][E,E][E,C] [E,B,][E,B,][E,D][E,B,] | %8
w: ~ ~ ~ ~ ~ ~ ~|~ ~ ~ ~ ~ ~ ~ ~|
 [A,,C]6 || [A,E][A,E] | [A,E][A,E][A,E][A,E] [A,E][A,C]A,A, | %11
w: ~|Ho- ly|Bi- ble, Ho- ly Bi- ble, God hath|
 [E,G,][E,G,][E,G,][E,G,] [E,G,][E,G,][E,B,][E,E] | [E,E][E,E][E,E][E,E] [E,E][E,E][E,B,][E,E] | %13
w: spo- ken, God hath spo- ken, Let his|Word di- rect my way, Yes, let His|
 [A,E][E,E][E,E][E,E] [E,E]2 [A,E][A,E] | [A,E][A,E][A,E][A,E] [A,E][A,C]A,A, | %15
w: Word di- rect my way; Ho- ly|Bi- ble, Ho- ly Bi- ble, Won- drous|
 [D,F,][D,F,][D,F,][D,F,] [D,F,][D,A,][D,A,][D,A,] | %16
w: to- ken, won- drous to- ken. * *|
 [E,A,][E,C][E,E][E,C] [E,B,][E,B,][E,D][E,B,] | [A,,C]6 |] %18
w: ||
V:4
 A,A, | A,>A, A,A, A,2 A,A, | x8 | x8 | (E,4 E,D,) x2 | x8 | x8 | x8 | x6 || x2 | x6 A,A, | x8 | %12
 x8 | x8 | x6 A,A, | x8 | x8 | x6 |] %18

